shader_type spatial;
render_mode unshaded, wireframe, cull_disabled, shadows_disabled;

void vertex() {
	// Called for every vertex the material is visible on.
}

void fragment() {
	//ALBEDO = COLOR;
}

//void light() {
//	// Called for every pixel for every light affecting the material.
//	// Uncomment to replace the default light processing function with this one.
//}
